X:062 
T:First Month of Summer (reel), The
S:Brendan Tonra (Boston)
F:file ID: cre.5/062first_m
B:CRE5.148 (ChÃÂÃÂÃÂÃÂ©ad MhÃÂÃÂÃÂÃÂ­ den tSamhradh)
L:1/8
Q:180
M:C
R:reel
K:A
AFF2 E2CE|A,ECE dBcB|AFF2 ECB,C|A,CEA cdBc|
A2FA E2CE|A,ECE dBcB|AFF2 ECB,C|A,CEA dBcB ||
Ac~c2 ecfc|ecAc fe (3fga|Ac~c2 ecfc|dBcA Bcdf|
Ac~c2 Acfc|ecAc f3g|agfe fedc|dBcA BdcB|A8||


%%%

